X:1
T:My Dog's Bigger Than Your Dog
M:4/4
L:1/4
K:G
 B B A/2G/2 E| D2 G2| B B A/2G/2 E| A4| B B A/2G/2 E| c c/2c/2A/2-G/2 E|\
 B B A/2G/2 A| G4|
